X:1
T:Paa fjellet
T:Paa fjellet
T:Martin Andreas Udbye
C:Martin Andreas Udbye
%%score [ 1 2 3 4 ]
L:1/8
Q:1/4=78
M:2/4
K:C
V:1 treble-8 nm="T1"
V:2 treble-8 nm="T2"
V:3 bass nm="B1"
V:4 bass nm="B2"
V:1
"^Allegro"!f! G/ | !>!e2 !>!d2 | c c/ e/ g e | c A/"^rit." B/ (cd) | !fermata!e3"^rit." A/ A/ | %5
w: Hu-|hei! kor|er dat vel friskt og|lett upp aa Fjel- *|let! upp aa|
!<(! (c2 d2)!<)! |!f!!>(! e2- !fermata!e3/2!>)!"^a tempo"!f! E/ | !>!c2 !>!B2 | A A/ c/ e c | %9
w: Fjel- *|let! _ her|lej- kar|Vin- den i kaa- te|
 A"^rit." d/ c/ (BA) | !fermata!G3"^rit."!pp! d/ c/ | (B2 A2) | G2- !fermata!G3/2"^a tempo"!f! G/ | %13
w: Sprett upp aa Fjel- *|let, upp aa|Fjel- *|let! _ og|
 G (f/e/) d ^c/ d/ | e d c!p! E | E (d/c/) B!<(! A/ B/!<)! | c B A!f! A/ B/ | %17
w: Fo- ten _ dan- sar og|Au- gat lær. og|hjar- tat _ kvejk- jan- de|Hug- nad fær upp aa|
 (c!<(!d) e!<)!"^rit. e dim. poco a poco." A/ B/ | (cd) e!pp! A/ A/ | %19
w: Fjel- * let! upp aa|Fjel- * let! upp aa|
[Q:1/4=44]"^Lento"!<(! (c2 d2)!<)! |!f!!>(! !fermata!e2 z!>)! z/ |] %21
w: Fjel- *|let!|
V:2
!f! G/ | !>!c2 !>!B2 | c G/ c/ e c | G G/ A/ (GB) | !fermata!c3 A/ A/ |!<(! (G2 A2)!<)! | %6
w: Hu-|hei! kor|er dat vel friskt og|lett upp aa Fjel- *|let! upp aa|Fjel- *|
!f!!>(! B2- !fermata!B3/2!>)!!f! E/ | !>!A2 !>!^G2 | A E/ A/ c A | ^F A/ F/ (GF) | %10
w: let! _ her|lej- kar|Vin- den i kaa- te|Sprett upp aa Fjel- *|
 !fermata!G3!pp! G/ A/ | (G2 ^F2) | G2- !fermata!G3/2!f! G/ | G (d/c/) B ^A/ B/ | c B c!p! E | %15
w: let, upp aa|Fjel- *|let! _ og|Fo- ten _ dan- sar og|Au- gat lær. og|
 E (B/A/) ^G!<(! ^F/ G/!<)! | A ^G A!f! A/ A/ | A2 B"^rit. e dim. poco a poco." A/ A/ | %18
w: hjar- tat _ kvejk- jan- de|Hug- nad fær upp aa|Fjel- let! upp aa|
 (AB) c!pp! A/ _A/ |!<(! (G2 B2)!<)! |!f!!>(! !fermata!c2 z!>)! z/ |] %21
w: Fjel- * let! upp aa|Fjel- *|let!|
V:3
!f! G,/ | !>!G,2 !>!F,2 | E, E,/ G,/ C G, | E, F,/ F,/ (E,G,) | !fermata!G,3 F,/ F,/ | %5
w: Hu-|hei! kor|er dat vel friskt og|lett upp aa Fjel- *|let! upp aa|
!<(! (E,2 A,2)!<)! |!f!!>(! ^G,2- !fermata!G,3/2!>)!!f! E,/ | !>!E,2 !>!E,2 | C, C,/ E,/ A, E, | %9
w: Fjel- *|let! _ her|lej- kar|Vin- den i kaa- te|
 D, ^F,/ D,/ (D,C,) | !fermata!B,,3!pp! D,/ E,/ | (D,2 C,2) | B,,2- !fermata!B,,3/2!f! G,/ | %13
w: Sprett upp aa Fjel- *|let, upp aa|Fjel- *|let! _ og|
 G, G, G, G,/ G,/ | G, F, E,!p! E, | E, E, E,!<(! E,/ E,/!<)! | E, D, C,!f! C,/ D,/ | %17
w: Fo- ten dan- sar og|Au- gat lær. og|hjar- tat kvejk- jan- de|Hug- nad fær upp aa|
 (E,!<(!A,) ^G,!<)!"^rit. e dim. poco a poco." A,/ A,/ | (A,_A,) G,!pp! F,/ F,/ | %19
w: Fjel- * let! upp aa|Fjel- * let! upp aa|
!<(! (E,2 G,2)!<)! |!f!!>(! !fermata!G,2 z!>)! z/ |] %21
w: Fjel- *|let!|
V:4
!f! G,/ | !>!C,2 !>!G,,2 | C, C,/ C,/ C, C, | C, C,/ C,/ (C,G,,) | !fermata!C,3 C,/ C,/ | %5
w: Hu-|hei! kor|er dat vel friskt og|lett upp aa Fjel- *|let! upp aa|
!<(! (C,2 F,2)!<)! |!f!!>(! E,2- !fermata!E,3/2!>)!!f! E,/ | !>!A,,2 !>!E,2 | %8
w: Fjel- *|let! _ her|lej- kar|
 A,, A,,/ A,,/ A,, A,, | D, D,/ D,/ (G,,D,) | !fermata!G,,3!pp! B,,/ D,/ | D,4 | %12
w: Vin- den i kaa- te|Sprett upp aa Fjel- *|let, upp aa|Fjel-|
 G,,2- !fermata!G,,3/2!f! G,/ | G,, G,, G,, G,,/ G,,/ | C, G,, C,!p! E, | %15
w: let! _ og|Fo- ten dan- sar og|Au- gat lær. og|
 E, E, E,!<(! E,/ E,/!<)! | A,, E, A,,!f! A,,/ A,,/ | %17
w: hjar- tat kvejk- jan- de|Hug- nad fær upp aa|
 (A,,!<(!F,) E,!<)!"^rit. e dim. poco a poco." F,/ F,/ | F,2 C,!pp! C,/ C,/ |!<(! (C,2 G,,2)!<)! | %20
w: Fjel- * let! upp aa|Fjel- let! upp aa|Fjel- *|
!f!!>(! !fermata!C,2 z!>)! z/ |] %21
w: let!|

